X: 14281
T: Row your Rumple Sauney
%R: reel, march
B: James Oswald "The Caledonian Pocket Companion" v.1 b.4 p.28
S: https://ia800501.us.archive.org/18/items/caledonianpocket01rugg/caledonianpocket01rugg_bw.pdf
Z: 2020 John Chambers <jc:trillian.mit.edu>
M: C|
L: 1/8
K: D
"_Brisk"(ag) |\
f2d2 a2d2 | (fg)a2 Tf4 | (AB)(cd) e2A2 | Tc4 e2(ag) |\
f2d2 a2d2 | (fg)a2 Tf4 | (de)(fg) a2d2 | Tf4 a2(ga) |
b2g2 a2f2 | g2(eg) Tf4 | (AB)(cd) e2A2 | Tc4 e2(dc) |\
B2d2 A2d2 | F2d2 E2d2 | (DE)(FG) A2D2 | TF4 A2 :|
|: (ag) |\
(fg)(ab) (af)d2 | (ba)(db) (af)d2 | (AB)(cd) eAaA | Tc4 e2(ag) |\
(fg)(ab) .a(fed) | .b(gfe) .a(fed) | (d'c'ba gfed) |
Tf4 a2(ga) |\
bagb afea | gfeg f2d2 | (AB)(cd) eaAd | Tc4 e2(dc) |\
(Bd)Td2 (Ad)Td2 | (Fd)Td2 (Ed)Td2 | (DE)(FG) AGAD | TF4 A2 :|
|: (ag) |\
f2d2- dfeg | fad2- dfed | .e(cBA) aefd | Tc4 e2(ag) |\
.f(ded) .a(ded) | .b(ded) .a(ded) | (bc'd')b a(fed) | Tf4 a2(ga) |
bgGb afFa | geEg .f(ded) | b3a (gf)(ed) | Tc4 e2(dc) |\
.B(dcd) .B(dcd) | .G(dcd) .E(dcd) | (DE)(FG) A2D2 | TF4 A2 :|
|: (ag) |\
f2d2 D2F2 | A2d2 fad'2 | (gf)(ed) b2d2 | Tc4 e2(ag) |\
f2d2 (AF)D2 | (af)d2 (AF)D2 | bafb .a(fed) | Tf4 a2(ga) |
bgdB GBdg | afdA FAdf | .e(gfe) .b(gfe) | Tc4 e2(dc) |\
B2(Bd) A2(Ad) | FBdF E2d2 | (DE)(FG) A2D2 | TF4 A2 :|


